X:0
T:William Taylor
S:Mary Anne Ash, Cannington, Somerset, 8th August 1906
M:C
K:D
A3 D D D E F|G3 E (FE)D2|G3D A2 (AB)|
w:Bil-ly Tay-lor was a brisk young sail*or court-ed by some*
=c2d2A3D|A2A2 d d A B|=c B A G F2G2|
w:la-dy gay and just as bil-ly was a go-ing to be mar-ried
A3 B (=cB) (AG)|F2E2D4|]
w:Pressed he was* and*sent to sea

